X: 290
T:Mick Finn's
M:4/4
L:1/8
R:Reel
Z:Richard Moon
K:D
D2AD BDAD|D2AD BDAD|E2BE dEBE|BABc dBAF
|D2AD BDAD|D2AD BDAD|GFEF GABc|1d2Ad fdAF:|2d2Ad fdAc||
d2fd adfd|g2fg edBc|d2fd adfd|g2fg e3c|
d2fd adfd|g2fg edBc|dBBA Bcde|
1f2af efec:||2f2af efeB||
<end>
<start>
